assets/svg/icon_pencil.svg

<svg width="18" height="24" viewBox="0 0 18 24" fill="none" xmlns="http://www.w3.org/2000/svg">
<path d="M0.758617 23.2815C0.871117 23.36 1.003 23.3996 1.14362 23.3996C1.26276 23.3996 1.38768 23.3711 1.5119 23.3137L1.33854 22.9393L1.51276 23.3132L4.76595 21.7989C5.31814 21.5425 6.02399 20.9506 6.37369 20.4517L16.9955 5.28148C17.9368 3.9371 17.609 2.07788 16.2648 1.13648C14.9203 0.195857 13.061 0.523277 12.1194 1.86788L1.497 17.0381C1.14778 17.5366 0.833095 18.4028 0.780815 19.0093L0.471055 22.5843L0.895895 22.6212L0.470735 22.5852C0.445501 22.8819 0.550423 23.1355 0.758395 23.2814L0.758617 23.2815ZM12.78 2.32953C13.466 1.34969 14.8218 1.11023 15.8024 1.79657C16.7821 2.48289 17.021 3.83877 16.3347 4.81897L15.0539 6.64757L11.4995 4.15877L12.78 2.32953ZM11.0367 4.81913L14.5913 7.30793L6.34846 19.0807L2.79386 16.5915L11.0367 4.81913ZM1.58426 19.0781C1.62402 18.6166 1.89222 17.8793 2.15786 17.5001L2.33153 17.2523L5.88613 19.7414L5.71277 19.9889C5.44699 20.3682 4.84581 20.8721 4.42581 21.0676L1.28541 22.529L1.58426 19.0781Z" fill="black"/>
</svg>

<svg fill="none" height="24" viewBox="0 0 18 24" width="18" xmlns="http://www.w3.org/2000/svg"><path d="m.758617 23.2815c.1125.0785.244383.1181.385003.1181.11914 0 .24406-.0285.36828-.0859l-.17336-.3744.17422.3739 3.25319-1.5143c.55219-.2564 1.25804-.8483 1.60774-1.3472l10.62181-15.17022c.9413-1.34438.6135-3.2036-.7307-4.145-1.3445-.940623-3.2038-.613203-4.1454.7314l-10.6224 15.17022c-.34922.4985-.663905 1.3647-.716185 1.9712l-.30976 3.575.42484.0369-.42516-.036c-.025234.2967.079688.5503.28766.6962zm12.021383-20.95197c.686-.97984 2.0418-1.2193 3.0224-.53296.9797.68632 1.2186 2.0422.5323 3.0224l-1.2808 1.8286-3.5544-2.4888zm-1.7433 2.4896 3.5546 2.4888-8.24284 11.77277-3.5546-2.4892zm-9.45244 14.25897c.03976-.4615.30796-1.1988.5736-1.578l.17367-.2478 3.5546 2.4891-.17336.2475c-.26578.3793-.86696.8832-1.28696 1.0787l-3.1404 1.4614z" fill="#000"/></svg>
